P3
# Created by IrfanView
1024 1
255
91 56 140 90 56 140 90 56 140 90 56 140 90 56 142 
90 56 142 89 55 142 88 55 142 88 55 142 88 55 143 
88 55 144 88 55 144 86 55 143 85 55 143 85 55 144 
85 55 145 84 55 145 84 54 146 84 54 146 83 54 146 
83 54 147 83 54 147 82 54 147 81 54 147 81 54 147 
81 54 148 80 54 149 80 55 149 80 54 150 79 53 150 
79 53 151 79 53 152 79 53 152 79 53 152 78 54 152 
78 53 153 77 53 153 75 53 153 75 53 153 75 53 154 
75 53 154 74 52 155 74 51 155 74 51 155 73 52 156 
73 52 157 73 52 157 73 52 157 72 52 157 71 52 159 
71 52 159 71 52 159 70 51 159 70 51 159 69 51 159 
69 51 160 69 51 161 69 51 161 68 51 161 67 50 161 
67 50 162 66 50 162 66 51 163 67 50 164 65 50 164 
65 51 165 65 51 164 64 50 164 64 50 164 63 50 165 
63 50 166 63 50 166 63 50 167 63 50 167 61 49 167 
60 49 168 60 49 168 60 49 169 60 49 169 59 49 169 
59 49 171 59 49 171 59 49 171 58 49 172 57 49 171 
57 49 172 57 48 173 57 48 173 57 48 173 55 48 172 
54 48 173 54 48 174 54 48 174 54 48 175 53 48 176 
53 48 176 53 48 176 52 47 176 52 47 176 51 47 176 
50 47 176 51 47 177 50 47 178 50 47 178 49 47 180 
49 47 180 49 47 180 48 46 180 48 46 181 48 46 181 
48 46 181 48 46 181 47 46 182 47 46 182 45 46 183 
44 46 183 44 46 183 44 46 183 44 46 183 43 45 184 
43 44 184 42 45 184 42 45 186 42 45 186 41 45 187 
41 45 188 41 45 188 40 45 188 40 45 188 39 46 189 
39 45 189 39 44 189 38 44 190 38 44 190 38 44 190 
38 44 192 37 44 192 37 44 191 37 45 192 36 44 192 
35 44 193 34 44 193 34 44 193 33 43 193 33 43 193 
33 42 194 33 42 195 32 43 195 32 43 195 32 43 196 
32 43 197 31 43 197 30 43 197 29 42 198 29 42 198 
29 42 198 29 42 200 28 42 200 28 42 200 28 42 200 
28 42 201 27 42 201 26 42 200 26 42 201 25 41 202 
26 41 202 25 41 202 23 41 203 23 41 203 23 40 204 
23 41 205 23 43 204 23 43 205 23 44 205 23 45 206 
23 45 206 23 47 207 23 47 206 23 48 207 24 49 207 
24 50 207 23 51 207 23 52 208 23 53 208 24 54 208 
24 55 208 24 55 208 24 56 209 24 57 210 24 57 210 
24 59 210 24 60 210 24 60 211 24 61 212 24 62 212 
23 63 212 24 64 213 25 65 213 24 66 214 24 67 214 
24 68 213 24 69 214 24 69 214 24 70 215 24 71 215 
24 72 215 24 73 215 24 74 215 24 74 216 24 75 216 
24 76 217 24 77 217 25 78 218 25 79 217 24 80 217 
25 81 218 25 81 218 25 83 219 25 83 219 26 84 218 
25 85 219 25 86 219 25 87 220 25 87 220 25 88 220 
25 89 221 25 90 221 25 91 222 25 92 222 25 92 222 
25 93 223 25 95 224 25 96 224 25 96 224 26 97 225 
25 98 224 25 99 224 25 100 225 25 100 225 26 101 225 
26 103 225 26 104 226 26 105 226 26 105 226 26 106 227 
26 106 227 26 107 227 25 108 228 26 109 228 26 110 228 
26 111 228 26 112 229 26 113 229 26 113 229 26 114 230 
26 115 230 26 116 230 26 117 231 26 117 231 26 118 232 
26 120 233 26 120 233 25 121 233 26 122 233 26 123 233 
26 124 233 27 125 234 28 126 235 27 126 234 26 127 233 
27 128 234 27 129 235 27 130 235 27 131 236 27 131 236 
27 132 236 27 133 237 27 134 237 27 135 236 27 136 237 
27 136 237 27 137 238 26 138 238 27 139 239 27 140 239 
27 141 238 27 141 239 26 143 239 27 144 240 27 144 240 
27 145 241 27 145 241 27 147 241 27 148 241 27 149 242 
26 149 242 27 150 243 28 151 244 28 151 244 28 152 244 
28 153 243 28 154 244 27 155 244 28 156 245 28 156 245 
27 157 245 28 159 245 28 159 246 28 160 245 29 161 246 
28 161 246 28 162 247 28 162 247 28 164 247 28 165 247 
27 166 247 28 167 248 28 167 248 27 168 248 28 169 249 
29 170 249 29 170 250 28 171 250 29 172 250 28 173 250 
28 174 251 29 175 252 29 176 252 29 176 252 29 177 252 
29 178 252 29 179 252 29 180 253 29 180 253 29 181 254 
30 182 255 30 182 255 29 183 255 30 184 254 29 185 254 
28 185 254 29 186 255 29 186 254 29 186 253 28 186 251 
28 186 249 29 186 248 30 186 247 30 186 246 30 186 244 
30 187 243 30 187 241 30 187 240 30 187 239 30 187 237 
29 187 236 29 187 235 29 187 234 29 187 232 28 187 230 
28 187 229 28 187 228 28 187 227 28 187 226 29 187 224 
29 187 222 28 187 220 28 188 220 29 188 219 28 187 217 
28 187 216 28 188 214 28 188 213 28 188 211 28 188 210 
28 188 209 28 188 207 28 187 206 28 188 204 28 188 203 
28 188 202 28 188 201 27 188 199 27 188 198 28 189 197 
28 189 195 27 189 193 27 189 192 27 189 191 29 189 190 
29 189 188 29 189 187 27 189 185 26 189 184 27 189 183 
28 189 182 28 189 181 27 189 179 27 189 177 27 189 176 
27 189 175 27 190 174 27 190 172 27 190 170 27 190 169 
27 191 168 27 191 167 28 190 166 27 190 164 27 190 163 
27 190 161 27 190 159 27 190 159 27 191 157 26 190 156 
26 190 154 27 190 153 28 190 151 27 191 149 28 190 149 
28 191 148 28 191 147 28 191 145 28 191 143 27 191 141 
27 191 140 27 191 140 27 191 139 26 191 137 26 191 135 
26 191 134 26 191 132 26 191 131 27 191 130 26 192 129 
26 192 127 26 192 126 27 192 124 26 191 122 26 191 122 
26 192 121 26 192 119 26 192 118 26 192 116 26 192 115 
25 192 114 25 192 112 26 192 111 26 192 110 26 192 108 
26 192 106 26 192 105 26 193 105 26 193 103 26 193 101 
25 193 99 25 193 98 25 193 97 25 194 96 26 193 95 
25 193 93 24 193 91 24 193 90 26 193 88 26 193 88 
26 193 87 26 193 85 25 193 83 25 193 82 26 194 80 
25 194 79 25 194 78 25 194 77 25 194 76 25 194 74 
26 194 73 26 194 72 25 194 70 25 194 69 25 194 68 
25 194 66 25 194 64 25 194 63 24 194 61 24 194 60 
25 195 59 25 196 58 24 195 56 24 195 55 25 195 53 
26 195 52 26 195 51 26 195 50 25 195 48 25 195 46 
25 195 45 25 195 44 24 195 42 24 195 41 24 195 40 
24 195 38 24 195 37 24 196 36 24 196 34 24 196 32 
24 196 32 25 196 31 25 196 29 24 195 28 24 196 26 
24 196 25 24 196 24 25 196 24 27 197 24 29 197 24 
30 197 24 32 198 24 33 198 24 34 198 24 35 199 25 
37 199 25 38 199 25 39 200 25 41 200 25 42 200 25 
43 200 25 45 201 26 47 201 26 48 201 26 49 202 26 
50 202 27 51 202 26 52 203 26 55 203 26 56 203 26 
57 204 27 59 204 27 60 204 28 61 205 27 62 205 27 
63 205 28 65 206 27 67 206 27 68 205 27 69 206 27 
71 207 27 72 207 27 74 207 28 75 208 28 76 208 28 
77 208 28 79 209 28 80 209 28 81 209 28 83 210 28 
85 210 28 86 210 28 87 211 29 88 211 29 90 211 29 
91 211 29 93 212 29 94 212 28 95 212 28 96 212 29 
98 213 29 99 213 30 101 213 30 103 214 31 104 214 31 
104 214 30 106 215 30 108 215 31 109 215 30 111 216 30 
112 216 30 113 217 31 115 217 30 116 217 31 117 217 31 
118 218 31 120 218 31 122 218 32 123 219 31 124 219 31 
125 219 32 127 220 32 129 220 32 130 221 32 130 221 32 
132 221 32 133 221 31 135 222 32 136 222 32 138 222 31 
140 222 32 141 222 32 142 223 33 143 223 33 144 224 33 
146 224 34 147 224 33 148 224 33 150 225 33 151 225 33 
153 225 33 154 226 34 155 226 34 156 226 33 157 227 33 
159 227 34 161 227 34 162 228 34 164 228 35 165 228 35 
166 228 35 167 229 35 169 229 35 170 229 35 171 230 35 
173 230 35 174 231 35 175 231 34 177 231 35 179 231 35 
180 232 35 181 232 36 182 232 36 183 233 37 185 233 37 
186 233 36 188 234 37 190 234 36 191 234 35 192 234 36 
193 235 37 194 235 37 196 235 37 198 236 37 199 236 37 
200 236 37 201 236 37 203 237 37 204 237 37 205 238 37 
207 238 38 208 238 38 209 239 38 211 239 38 212 239 38 
213 240 38 216 240 38 217 240 38 218 241 38 219 241 38 
220 241 38 222 241 38 223 242 39 225 242 39 227 242 39 
228 243 39 229 243 39 230 243 39 231 243 39 233 244 39 
235 244 39 236 245 40 237 245 40 238 245 40 240 245 40 
241 246 40 242 246 40 244 247 39 244 247 40 246 247 40 
247 247 40 249 248 41 250 248 41 252 248 41 253 249 41 
254 249 41 255 249 41 255 248 41 255 248 40 255 247 40 
254 246 40 255 245 41 255 244 40 255 243 40 255 243 39 
255 242 39 255 242 39 255 241 38 255 241 38 255 240 38 
255 239 37 255 238 37 255 238 37 255 238 37 255 237 36 
255 236 36 254 235 35 255 234 37 255 233 36 255 233 34 
255 232 35 255 231 35 255 231 35 254 230 34 255 229 34 
255 228 34 255 228 33 255 228 33 255 227 32 255 226 33 
255 225 33 255 225 32 254 224 32 255 223 32 255 223 32 
255 222 31 255 221 31 255 220 31 255 220 31 254 219 31 
255 218 31 255 218 31 255 217 30 255 216 29 255 215 29 
255 215 29 255 214 30 255 214 28 254 213 28 254 212 29 
255 212 29 255 211 28 255 211 28 255 210 27 255 209 27 
254 208 26 255 208 26 255 207 26 255 206 26 255 205 26 
255 205 25 255 204 25 255 203 24 255 202 24 255 202 24 
255 201 23 255 200 24 255 199 24 255 199 24 255 199 24 
255 198 23 255 198 23 255 197 22 255 196 22 255 195 22 
255 195 22 255 194 22 255 193 21 255 192 21 255 191 21 
255 191 21 254 190 20 255 189 20 255 189 20 255 188 19 
255 187 19 255 186 20 255 186 20 255 185 19 255 185 19 
255 184 18 255 184 18 255 183 18 255 182 17 255 182 17 
255 181 17 255 180 17 255 179 16 255 179 16 255 178 16 
255 177 15 255 176 15 255 176 14 255 175 15 255 175 16 
255 174 14 255 173 14 255 172 14 255 172 14 255 171 13 
255 171 13 255 171 13 255 169 13 255 168 12 255 168 12 
255 167 13 255 166 12 255 165 12 255 164 11 255 164 11 
255 164 11 254 163 10 255 162 10 255 162 10 255 160 11 
255 159 10 255 159 10 255 159 10 255 158 9 255 157 9 
255 157 8 255 156 8 255 155 9 255 155 9 255 154 8 
255 153 8 254 152 7 254 152 7 255 151 7 255 150 6 
255 150 6 255 149 6 255 149 6 255 148 5 255 146 5 
255 146 4 255 145 4 255 145 4 255 144 3 255 144 3 
255 143 3 255 142 2 254 141 3 254 141 3 255 140 3 
255 140 3 255 139 2 255 138 1 255 137 2 255 137 1 
254 136 2 255 135 2 255 135 2 255 134 1 255 133 0 
255 133 0 255 132 0 254 131 1 254 130 0 254 129 0 
253 128 0 253 128 0 252 127 0 252 127 0 252 126 0 
253 125 0 252 124 0 251 123 0 251 123 0 251 123 0 
250 121 1 250 120 0 250 120 0 249 119 0 249 118 0 
249 117 0 249 117 0 248 116 0 249 115 0 248 114 0 
248 114 0 247 113 0 248 112 0 247 111 1 246 111 1 
246 110 0 246 110 0 245 109 1 245 108 1 245 107 0 
244 105 0 244 105 0 244 104 0 244 103 0 243 102 0 
243 101 0 243 101 1 243 100 0 242 99 0 242 99 0 
242 98 1 241 97 0 241 97 0 241 96 0 241 95 0 
241 94 0 240 93 0 240 93 0 240 92 0 240 91 1 
239 90 0 238 90 0 238 89 0 238 88 1 237 87 0 
237 87 0 237 86 1 237 85 1 236 84 0 236 84 0 
235 83 0 235 82 0 236 81 0 236 81 0 235 80 0 
234 79 0 234 78 1 234 77 1 233 77 0 233 76 0 
233 75 1 232 74 0 232 74 0 232 73 0 232 72 0 
232 71 0 232 71 1 231 70 0 231 69 0 231 69 1 
230 68 1 230 67 0 229 66 0 229 66 1 229 65 1 
228 64 0 228 63 0 228 62 0 228 62 0 227 61 1 
226 60 0 227 59 0 226 59 0 226 58 0 226 57 0 
225 56 0 225 56 1 225 55 0 225 54 0 224 53 0 
224 53 1 224 52 0 224 51 0 224 50 0 223 49 0 
223 49 0 222 48 0 222 47 0 222 46 0 221 45 0 
221 44 0 221 44 0 220 43 0 220 42 0 220 41 0 
220 41 0 219 40 0 218 39 0 219 38 0 219 38 0 
218 37 0 218 36 0 218 35 0 217 34 0 217 34 0 
217 33 0 217 32 0 216 31 0 216 31 0 215 30 0 
214 29 0 215 29 0 216 28 0 215 27 0 214 26 0 
214 26 0 213 25 0 213 24 0 213 23 0 213 23 0 
212 22 0 212 22 0 212 20 0 211 19 0 211 18 0 
211 18 1 210 17 0 209 16 0 210 16 0 210 15 1 
210 14 0 209 13 0 209 13 0 208 12 0 208 12 0 
208 11 0 208 10 0 207 9 0 207 9 0 207 7 0 
207 7 0 207 6 0 206 5 0 206 4 0 205 3 0 
205 3 0 205 1 0 205 1 0 205 1 0 